images/3247335.svg

<?xml version="1.0" encoding="UTF-8"?>
<svg xmlns="http://www.w3.org/2000/svg" xmlns:xlink="http://www.w3.org/1999/xlink" width="300pt" height="300pt" viewBox="0 0 300 300" version="1.1">
<defs>
<g>
<symbol overflow="visible" id="glyph0-0">
<path style="stroke:none;" d="M 0.796875 2.828125 L 0.796875 -11.28125 L 8.796875 -11.28125 L 8.796875 2.828125 Z M 1.703125 1.9375 L 7.90625 1.9375 L 7.90625 -10.390625 L 1.703125 -10.390625 Z M 1.703125 1.9375 "/>
</symbol>
<symbol overflow="visible" id="glyph0-1">
<path style="stroke:none;" d="M 6.3125 -10.59375 C 5.164062 -10.59375 4.253906 -10.164062 3.578125 -9.3125 C 2.898438 -8.457031 2.5625 -7.296875 2.5625 -5.828125 C 2.5625 -4.359375 2.898438 -3.195312 3.578125 -2.34375 C 4.253906 -1.488281 5.164062 -1.0625 6.3125 -1.0625 C 7.457031 -1.0625 8.363281 -1.488281 9.03125 -2.34375 C 9.695312 -3.195312 10.03125 -4.359375 10.03125 -5.828125 C 10.03125 -7.296875 9.695312 -8.457031 9.03125 -9.3125 C 8.363281 -10.164062 7.457031 -10.59375 6.3125 -10.59375 Z M 6.3125 -11.875 C 7.945312 -11.875 9.253906 -11.328125 10.234375 -10.234375 C 11.210938 -9.140625 11.703125 -7.671875 11.703125 -5.828125 C 11.703125 -3.984375 11.210938 -2.507812 10.234375 -1.40625 C 9.253906 -0.3125 7.945312 0.234375 6.3125 0.234375 C 4.664062 0.234375 3.351562 -0.3125 2.375 -1.40625 C 1.394531 -2.507812 0.90625 -3.984375 0.90625 -5.828125 C 0.90625 -7.671875 1.394531 -9.140625 2.375 -10.234375 C 3.351562 -11.328125 4.664062 -11.875 6.3125 -11.875 Z M 6.3125 -11.875 "/>
</symbol>
<symbol overflow="visible" id="glyph0-2">
<path style="stroke:none;" d="M 1.578125 -11.671875 L 3.703125 -11.671875 L 8.875 -1.90625 L 8.875 -11.671875 L 10.40625 -11.671875 L 10.40625 0 L 8.28125 0 L 3.109375 -9.765625 L 3.109375 0 L 1.578125 0 Z M 1.578125 -11.671875 "/>
</symbol>
<symbol overflow="visible" id="glyph0-3">
<path style="stroke:none;" d="M 1.578125 -11.671875 L 3.15625 -11.671875 L 3.15625 -6.890625 L 8.890625 -6.890625 L 8.890625 -11.671875 L 10.46875 -11.671875 L 10.46875 0 L 8.890625 0 L 8.890625 -5.5625 L 3.15625 -5.5625 L 3.15625 0 L 1.578125 0 Z M 1.578125 -11.671875 "/>
</symbol>
<symbol overflow="visible" id="glyph1-0">
<path style="stroke:none;" d="M 0.640625 2.296875 L 0.640625 -9.171875 L 7.140625 -9.171875 L 7.140625 2.296875 Z M 1.375 1.578125 L 6.421875 1.578125 L 6.421875 -8.4375 L 1.375 -8.4375 Z M 1.375 1.578125 "/>
</symbol>
<symbol overflow="visible" id="glyph1-1">
<path style="stroke:none;" d="M 2.5 -1.078125 L 6.96875 -1.078125 L 6.96875 0 L 0.953125 0 L 0.953125 -1.078125 C 1.441406 -1.578125 2.101562 -2.25 2.9375 -3.09375 C 3.78125 -3.945312 4.3125 -4.5 4.53125 -4.75 C 4.9375 -5.207031 5.21875 -5.597656 5.375 -5.921875 C 5.539062 -6.242188 5.625 -6.554688 5.625 -6.859375 C 5.625 -7.367188 5.445312 -7.78125 5.09375 -8.09375 C 4.75 -8.40625 4.289062 -8.5625 3.71875 -8.5625 C 3.3125 -8.5625 2.882812 -8.492188 2.4375 -8.359375 C 2 -8.222656 1.523438 -8.007812 1.015625 -7.71875 L 1.015625 -9.015625 C 1.535156 -9.222656 2.019531 -9.378906 2.46875 -9.484375 C 2.914062 -9.597656 3.320312 -9.65625 3.6875 -9.65625 C 4.675781 -9.65625 5.460938 -9.40625 6.046875 -8.90625 C 6.628906 -8.414062 6.921875 -7.757812 6.921875 -6.9375 C 6.921875 -6.550781 6.847656 -6.179688 6.703125 -5.828125 C 6.554688 -5.484375 6.289062 -5.078125 5.90625 -4.609375 C 5.800781 -4.484375 5.460938 -4.125 4.890625 -3.53125 C 4.328125 -2.945312 3.53125 -2.128906 2.5 -1.078125 Z M 2.5 -1.078125 "/>
</symbol>
</g>
</defs>
<g id="surface48389">
<rect x="0" y="0" width="300" height="300" style="fill:rgb(100%,100%,100%);fill-opacity:1;stroke:none;"/>
<path style="fill:none;stroke-width:1.2;stroke-linecap:butt;stroke-linejoin:miter;stroke:rgb(0%,0%,0%);stroke-opacity:1;stroke-miterlimit:10;" d="M 37.859375 96.917969 L 47.339844 113.527344 "/>
<path style="fill:none;stroke-width:1.2;stroke-linecap:butt;stroke-linejoin:miter;stroke:rgb(100%,0%,0%);stroke-opacity:1;stroke-miterlimit:10;" d="M 47.339844 113.527344 L 56.820312 130.136719 "/>
<path style="fill:none;stroke-width:1.2;stroke-linecap:butt;stroke-linejoin:miter;stroke:rgb(100%,0%,0%);stroke-opacity:1;stroke-miterlimit:10;" d="M 56.820312 130.136719 L 75.945312 130.234375 "/>
<path style="fill:none;stroke-width:1.2;stroke-linecap:butt;stroke-linejoin:miter;stroke:rgb(0%,0%,0%);stroke-opacity:1;stroke-miterlimit:10;" d="M 75.945312 130.234375 L 95.070312 130.328125 "/>
<path style=" stroke:none;fill-rule:nonzero;fill:rgb(100%,100%,100%);fill-opacity:1;" d="M 50.820312 120.636719 L 63.820312 120.636719 L 63.820312 139.636719 L 50.820312 139.636719 Z M 50.820312 120.636719 "/>
<g style="fill:rgb(100%,0%,0%);fill-opacity:1;">
  <use xlink:href="#glyph0-1" x="50.820312" y="135.488281"/>
</g>
<path style="fill:none;stroke-width:1.2;stroke-linecap:butt;stroke-linejoin:miter;stroke:rgb(0%,0%,0%);stroke-opacity:1;stroke-miterlimit:10;" d="M 98.957031 132.597656 L 108.601562 116.082031 "/>
<path style="fill:none;stroke-width:1.2;stroke-linecap:butt;stroke-linejoin:miter;stroke:rgb(100%,0%,0%);stroke-opacity:1;stroke-miterlimit:10;" d="M 108.601562 116.082031 L 118.246094 99.570312 "/>
<path style="fill:none;stroke-width:1.2;stroke-linecap:butt;stroke-linejoin:miter;stroke:rgb(0%,0%,0%);stroke-opacity:1;stroke-miterlimit:10;" d="M 91.183594 128.058594 L 100.828125 111.542969 "/>
<path style="fill:none;stroke-width:1.2;stroke-linecap:butt;stroke-linejoin:miter;stroke:rgb(100%,0%,0%);stroke-opacity:1;stroke-miterlimit:10;" d="M 100.828125 111.542969 L 110.472656 95.03125 "/>
<path style="fill:none;stroke-width:1;stroke-linecap:butt;stroke-linejoin:miter;stroke:rgb(0%,0%,0%);stroke-opacity:1;stroke-miterlimit:10;" d="M 114.03125 163.550781 L 114.03125 163.550781 M 113.019531 160.726562 L 112.113281 161.242188 M 112.007812 157.902344 L 110.195312 158.933594 M 110.996094 155.078125 L 108.277344 156.628906 M 109.984375 152.253906 L 106.363281 154.320312 M 108.972656 149.429688 L 104.445312 152.011719 M 107.960938 146.605469 L 102.527344 149.703125 M 106.949219 143.78125 L 100.609375 147.398438 M 105.9375 140.953125 L 98.691406 145.089844 M 104.925781 138.128906 L 96.773438 142.78125 M 103.914062 135.304688 L 94.859375 140.476562 M 102.902344 132.480469 L 92.941406 138.167969 M 101.890625 129.65625 L 91.023438 135.859375 M 100.933594 126.984375 L 89.207031 133.675781 "/>
<path style=" stroke:none;fill-rule:nonzero;fill:rgb(100%,100%,100%);fill-opacity:1;" d="M 108.359375 87.800781 L 121.359375 87.800781 L 121.359375 106.800781 L 108.359375 106.800781 Z M 108.359375 87.800781 "/>
<g style="fill:rgb(100%,0%,0%);fill-opacity:1;">
  <use xlink:href="#glyph0-1" x="108.359375" y="102.652344"/>
</g>
<path style="fill:none;stroke-width:1.2;stroke-linecap:butt;stroke-linejoin:miter;stroke:rgb(0%,0%,0%);stroke-opacity:1;stroke-miterlimit:10;" d="M 114.03125 163.550781 L 113.839844 201.800781 "/>
<path style="fill:none;stroke-width:1.2;stroke-linecap:butt;stroke-linejoin:miter;stroke:rgb(0%,0%,0%);stroke-opacity:1;stroke-miterlimit:10;" d="M 147.058594 182.839844 L 114.03125 163.550781 "/>
<path style=" stroke:none;fill-rule:nonzero;fill:rgb(0%,0%,0%);fill-opacity:1;" d="M 147.058594 182.839844 L 110.492188 195.9375 L 117.183594 207.660156 Z M 147.058594 182.839844 "/>
<path style="fill:none;stroke-width:1.2;stroke-linecap:butt;stroke-linejoin:miter;stroke:rgb(0%,0%,0%);stroke-opacity:1;stroke-miterlimit:10;" d="M 147.058594 182.839844 L 185.308594 183.03125 "/>
<path style=" stroke:none;fill-rule:nonzero;fill:rgb(0%,0%,0%);fill-opacity:1;" d="M 185.308594 183.03125 L 210.429688 153.402344 L 198.769531 146.597656 Z M 185.308594 183.03125 "/>
<path style="fill:none;stroke-width:1.2;stroke-linecap:butt;stroke-linejoin:miter;stroke:rgb(0%,0%,0%);stroke-opacity:1;stroke-miterlimit:10;" d="M 185.308594 183.03125 L 194.789062 199.640625 "/>
<path style="fill:none;stroke-width:1.2;stroke-linecap:butt;stroke-linejoin:miter;stroke:rgb(0%,0%,100%);stroke-opacity:1;stroke-miterlimit:10;" d="M 194.789062 199.640625 L 204.269531 216.25 "/>
<path style="fill:none;stroke-width:1.2;stroke-linecap:butt;stroke-linejoin:miter;stroke:rgb(0%,0%,0%);stroke-opacity:1;stroke-miterlimit:10;" d="M 204.597656 150 L 242.847656 150.191406 "/>
<path style="fill:none;stroke-width:1.2;stroke-linecap:butt;stroke-linejoin:miter;stroke:rgb(0%,0%,0%);stroke-opacity:1;stroke-miterlimit:10;" d="M 208.46875 141.019531 L 239.070312 141.171875 "/>
<path style="fill:none;stroke-width:1.2;stroke-linecap:butt;stroke-linejoin:miter;stroke:rgb(0%,0%,0%);stroke-opacity:1;stroke-miterlimit:10;" d="M 185.640625 116.78125 L 204.597656 150 "/>
<path style="fill:none;stroke-width:1.2;stroke-linecap:butt;stroke-linejoin:miter;stroke:rgb(0%,0%,0%);stroke-opacity:1;stroke-miterlimit:10;" d="M 242.847656 150.191406 L 262.140625 117.160156 "/>
<path style="fill:none;stroke-width:1.2;stroke-linecap:butt;stroke-linejoin:miter;stroke:rgb(0%,0%,0%);stroke-opacity:1;stroke-miterlimit:10;" d="M 262.140625 117.160156 L 243.179688 83.941406 "/>
<path style="fill:none;stroke-width:1.2;stroke-linecap:butt;stroke-linejoin:miter;stroke:rgb(0%,0%,0%);stroke-opacity:1;stroke-miterlimit:10;" d="M 252.425781 118.300781 L 237.257812 91.722656 "/>
<path style="fill:none;stroke-width:1.2;stroke-linecap:butt;stroke-linejoin:miter;stroke:rgb(0%,0%,0%);stroke-opacity:1;stroke-miterlimit:10;" d="M 243.179688 83.941406 L 204.929688 83.75 "/>
<path style="fill:none;stroke-width:1.2;stroke-linecap:butt;stroke-linejoin:miter;stroke:rgb(0%,0%,0%);stroke-opacity:1;stroke-miterlimit:10;" d="M 204.929688 83.75 L 185.640625 116.78125 "/>
<path style="fill:none;stroke-width:1.2;stroke-linecap:butt;stroke-linejoin:miter;stroke:rgb(0%,0%,0%);stroke-opacity:1;stroke-miterlimit:10;" d="M 210.773438 91.589844 L 195.339844 118.015625 "/>
<path style=" stroke:none;fill-rule:nonzero;fill:rgb(100%,100%,100%);fill-opacity:1;" d="M 188.269531 204.75 L 221.269531 204.75 L 221.269531 227.75 L 188.269531 227.75 Z M 188.269531 204.75 "/>
<g style="fill:rgb(0%,0%,100%);fill-opacity:1;">
  <use xlink:href="#glyph0-2" x="188.269531" y="219.601562"/>
  <use xlink:href="#glyph0-3" x="200.238281" y="219.601562"/>
</g>
<g style="fill:rgb(0%,0%,100%);fill-opacity:1;">
  <use xlink:href="#glyph1-1" x="212.269531" y="224.484375"/>
</g>
</g>
</svg>

<svg xmlns="http://www.w3.org/2000/svg" xmlns:xlink="http://www.w3.org/1999/xlink" width="300pt" height="300pt" viewBox="0 0 300 300"><defs><symbol overflow="visible"><path d="M.797 2.828v-14.11h8V2.83zm.906-.89h6.203v-12.33H1.703zm0 0"/></symbol><symbol overflow="visible" id="a"><path d="M6.313-10.594c-1.15 0-2.06.43-2.735 1.28-.68.857-1.015 2.017-1.015 3.486 0 1.47.335 2.633 1.015 3.484.676.856 1.586 1.28 2.735 1.28 1.144.002 2.05-.424 2.718-1.28.665-.85 1-2.015 1-3.484 0-1.47-.335-2.63-1-3.484-.667-.852-1.573-1.282-2.717-1.282zm0-1.28c1.632 0 2.94.546 3.92 1.64.978 1.093 1.47 2.562 1.47 4.406 0 1.844-.492 3.32-1.47 4.422-.98 1.093-2.288 1.64-3.92 1.64-1.65 0-2.96-.546-3.938-1.64-.98-1.102-1.47-2.578-1.47-4.422 0-1.844.49-3.313 1.47-4.406.977-1.094 2.29-1.64 3.938-1.64zm0 0"/></symbol><symbol overflow="visible" id="b"><path d="M1.578-11.672h2.125l5.172 9.766v-9.766h1.53V0H8.282L3.11-9.766V0H1.577zm0 0"/></symbol><symbol overflow="visible" id="c"><path d="M1.578-11.672h1.578v4.78H8.89v-4.78h1.58V0H8.89v-5.563H3.157V0H1.578zm0 0"/></symbol><symbol overflow="visible"><path d="M.64 2.297v-11.47h6.5v11.47zm.735-.72h5.047V-8.436H1.375zm0 0"/></symbol><symbol overflow="visible" id="d"><path d="M2.5-1.078h4.47V0H.952v-1.078c.488-.5 1.15-1.172 1.985-2.016C3.78-3.944 4.312-4.5 4.53-4.75c.407-.457.69-.848.845-1.172.164-.32.25-.633.25-.937 0-.507-.18-.92-.53-1.234-.345-.312-.806-.47-1.376-.47-.408.002-.837.072-1.283.205-.437.137-.914.352-1.42.64v-1.296c.518-.207 1.003-.363 1.452-.468.444-.114.85-.172 1.217-.172.99 0 1.774.25 2.36.75.582.492.875 1.148.875 1.97 0 .385-.074.756-.22 1.108-.147.344-.413.75-.796 1.22-.105.124-.445.483-1.015 1.077-.562.585-1.36 1.4-2.39 2.452zm0 0"/></symbol></defs><g><path fill="#fff" d="M0 0h300v300H0z"/><path d="M37.86 96.918l9.48 16.61" stroke-width="1.2" stroke="#000" stroke-miterlimit="10" fill="none"/><path d="M47.34 113.527l9.48 16.61M56.82 130.137l19.125.097" stroke-width="1.2" stroke="#f00" stroke-miterlimit="10" fill="none"/><path d="M75.945 130.234l19.125.094" stroke-width="1.2" stroke="#000" stroke-miterlimit="10" fill="none"/><path d="M50.82 120.637h13v19h-13zm0 0" fill="#fff"/><use xlink:href="#a" x="50.82" y="135.488" fill="#f00"/><path d="M98.957 132.598l9.645-16.516" stroke-width="1.2" stroke="#000" stroke-miterlimit="10" fill="none"/><path d="M108.602 116.082l9.644-16.512" stroke-width="1.2" stroke="#f00" stroke-miterlimit="10" fill="none"/><path d="M91.184 128.06l9.644-16.517" stroke-width="1.2" stroke="#000" stroke-miterlimit="10" fill="none"/><path d="M100.828 111.543l9.645-16.512" stroke-width="1.2" stroke="#f00" stroke-miterlimit="10" fill="none"/><path d="M114.03 163.55m-1.01-2.823l-.907.515m-.105-3.34l-1.813 1.032m.8-3.856l-2.718 1.55m1.707-4.374l-3.62 2.066m2.61-4.89l-4.53 2.582m3.517-5.407l-5.433 3.098m4.422-5.922l-6.34 3.618m5.328-6.445l-7.247 4.137m6.236-6.96l-8.153 4.65m7.14-7.475l-9.054 5.172m8.042-7.997l-9.96 5.688m8.95-8.512l-10.87 6.203m9.912-8.876l-11.727 6.692" stroke="#000" stroke-miterlimit="10" fill="none"/><path d="M108.36 87.8h13v19h-13zm0 0" fill="#fff"/><use xlink:href="#a" x="108.359" y="102.652" fill="#f00"/><path d="M114.03 163.55l-.19 38.25M147.06 182.84l-33.03-19.29" stroke-width="1.2" stroke="#000" stroke-miterlimit="10" fill="none"/><path d="M147.06 182.84l-36.568 13.097 6.692 11.723zm0 0"/><path d="M147.06 182.84l38.25.19" stroke-width="1.2" stroke="#000" stroke-miterlimit="10" fill="none"/><path d="M185.31 183.03l25.12-29.628-11.66-6.804zm0 0"/><path d="M185.31 183.03l9.48 16.61" stroke-width="1.2" stroke="#000" stroke-miterlimit="10" fill="none"/><path d="M194.79 199.64l9.48 16.61" stroke-width="1.2" stroke="#00f" stroke-miterlimit="10" fill="none"/><path d="M204.598 150l38.25.19M208.47 141.02l30.6.152M185.64 116.78L204.6 150M242.848 150.19l19.293-33.03M262.14 117.16l-18.96-33.22M252.426 118.3l-15.168-26.577M243.18 83.94l-38.25-.19M204.93 83.75l-19.29 33.03M210.773 91.59l-15.433 26.426" stroke-width="1.2" stroke="#000" stroke-miterlimit="10" fill="none"/><path d="M188.27 204.75h33v23h-33zm0 0" fill="#fff"/><g fill="#00f"><use xlink:href="#b" x="188.27" y="219.602"/><use xlink:href="#c" x="200.238" y="219.602"/></g><use xlink:href="#d" x="212.27" y="224.484" fill="#00f"/></g></svg>
